T: Glakey Hornpipe, The
M: 6/8
L: 1/8
K: Gmaj
|: B2 c |d>ed ^c2 d | B2 d G>AB | c>dc B2 c | A2 c A2 G |
F>Ad fed | F>Ad f>ed |[1 d>ed c>dc | B3 :|[2 d>ed c>BA | G3 G3/[D/d/][Cc] ||
|: [B,3/B3/]D/G B>GD | [B,3/B3/]D/G B>GD | E>^DE A>^GA | c>Ac e2 d |
d>^cd f>ed | F>Ad f>ed |[1 d>ed c>dc | B3 B3/[D/d/][Cc] :|[2 d>ed cBA | G3 |]
